X:15
T:Quick March. JMP.015
M:6/8
L:1/8
Q:3/8=110
C:â€17â€³
S:John Miller MS. Perth, 1799.(for the fife)
R:.March
O:Scotland
A:Perth
N:1 â€“ marked as triplet
N:Sounds rather conventional in D so Iâ€™m leaving it in G
H:1799
Z:vmp.C. Graebe
K:G Major
â€œ_key G as in MS, but works well in Dâ€A/G/ | FGA d2 A | ded c2 A |\
â€œ1â€(B/c/dB) AFD |BGE E2 G |!
FGA d2A | ded c2 A | (B/c/dB) AFd |AFD D2 :|!
|:ef | afd afd | efd c2A | (G/A/BG) (F/G/AF) |BGE E2f/g/ |!
afd afd | efd c2A | (B/c/dB) AFd | AFD D2 ğŸ˜

